assets/icons/bowtie/1.22/uE629-diff-side-by-side.svg

<svg xmlns="http://www.w3.org/2000/svg" viewBox="0 0 448 448" enable-background="new 0 0 448 448"><path d="M0 64v288h192v-288h-192zm160 256h-128v-160h128v160zm0-192h-128v-32h128v32zm96-64v288h192v-288h-192zm160 256h-128v-32h128v32zm0-96h-128v-128h128v128z"/></svg>

<svg xmlns="http://www.w3.org/2000/svg" viewBox="0 0 448 448"><path d="M0 64v288h192V64H0zm160 256H32V160h128v160zm0-192H32V96h128v32zm96-64v288h192V64H256zm160 256H288v-32h128v32zm0-96H288V96h128v128z"/></svg>
